X:1
T: Coming and Going
N:
C:by Thomas d'Urfey
S:Tune is "Love and Satyr"
A:
O:
R:
M:3/4
K:Am
I:speed 150
%W:
% voice 1 (1 lines, 25 notes)
K:Am
M:3/4
L:1/16
B4 |c4 A4 B4 |E8 B4 |c4 A4 d4 |G8 B4 |e4 e2 d2 c2 B2 |A4 G4 F4 |E2 F2 G4 A4 |B8 B4 |
%W:
% voice 1 (1 lines, 24 notes)
c4 A4 B4 |E8 B4 |c4 A4 d4 |G8 B4 |e4 e2 d2 c2 B2 |A4 G4 F4 |G2 A2 B4 B,4 |E8 g4 |
%W:
% voice 1 (1 lines, 24 notes)
f4 f4 g4 |a8 b4 |e4 f2 g2 f2 e2 |^d4 B4 B4 |e8 f4 |g6 a2 b4 |a2 g2 f6 e2 |e8 f4 |
%W:
% voice 1 (1 lines, 30 notes)
g4 g2 f2 e2 d2 |e4 e2 d2 c2 B2 |A4 d4 c4 |B4 b2 a2 g2 f2 |e8 e4 |^d2 e2 f4 b4 |e4 B2 A2 G2 F2 |E8 ||
